public/Instagram.svg

<svg width="25" height="24" viewBox="0 0 25 24" fill="none" xmlns="http://www.w3.org/2000/svg">
<path d="M12.4286 5.95239C9.09528 5.95239 6.33337 8.66668 6.33337 12.0476C6.33337 15.4286 9.04766 18.1429 12.4286 18.1429C15.8096 18.1429 18.5238 15.381 18.5238 12.0476C18.5238 8.7143 15.7619 5.95239 12.4286 5.95239ZM12.4286 15.9524C10.2858 15.9524 8.52385 14.1905 8.52385 12.0476C8.52385 9.90477 10.2858 8.14287 12.4286 8.14287C14.5715 8.14287 16.3334 9.90477 16.3334 12.0476C16.3334 14.1905 14.5715 15.9524 12.4286 15.9524Z" fill="#F2F2F7"/>
<path d="M18.7619 7.19048C19.5246 7.19048 20.1429 6.5722 20.1429 5.80953C20.1429 5.04685 19.5246 4.42857 18.7619 4.42857C17.9993 4.42857 17.381 5.04685 17.381 5.80953C17.381 6.5722 17.9993 7.19048 18.7619 7.19048Z" fill="#F2F2F7"/>
<path d="M22.3334 2.2381C21.0953 0.952387 19.3334 0.285721 17.3334 0.285721H7.52384C3.38098 0.285721 0.61908 3.04763 0.61908 7.19048V16.9524C0.61908 19 1.28575 20.7619 2.61908 22.0476C3.90479 23.2857 5.61908 23.9048 7.57146 23.9048H17.2857C19.3334 23.9048 21.0477 23.2381 22.2857 22.0476C23.5715 20.8095 24.2381 19.0476 24.2381 17V7.19048C24.2381 5.19048 23.5715 3.4762 22.3334 2.2381ZM22.1429 17C22.1429 18.4762 21.6191 19.6667 20.7619 20.4762C19.9048 21.2857 18.7143 21.7143 17.2857 21.7143H7.57146C6.14289 21.7143 4.95241 21.2857 4.09527 20.4762C3.23813 19.6191 2.80956 18.4286 2.80956 16.9524V7.19048C2.80956 5.76191 3.23813 4.57143 4.09527 3.71429C4.90479 2.90477 6.14289 2.4762 7.57146 2.4762H17.381C18.8096 2.4762 20 2.90477 20.8572 3.76191C21.6667 4.61905 22.1429 5.80953 22.1429 7.19048V17Z" fill="#F2F2F7"/>
</svg>

<svg width="25" height="24" fill="none" xmlns="http://www.w3.org/2000/svg"><path d="M12.429 5.952c-3.334 0-6.096 2.715-6.096 6.096a6.077 6.077 0 0 0 6.096 6.095c3.38 0 6.095-2.762 6.095-6.095 0-3.334-2.762-6.096-6.095-6.096Zm0 10a3.922 3.922 0 0 1-3.905-3.904 3.922 3.922 0 0 1 3.905-3.905 3.922 3.922 0 0 1 3.904 3.905 3.922 3.922 0 0 1-3.904 3.904ZM18.762 7.19a1.381 1.381 0 1 0 0-2.761 1.381 1.381 0 0 0 0 2.761Z" fill="#F2F2F7"/><path d="M22.333 2.238c-1.238-1.286-3-1.952-5-1.952h-9.81C3.382.286.62 3.048.62 7.19v9.762c0 2.048.667 3.81 2 5.096 1.286 1.238 3 1.857 4.952 1.857h9.715c2.047 0 3.762-.667 5-1.857 1.285-1.238 1.952-3 1.952-5.048V7.19c0-2-.666-3.714-1.905-4.952ZM22.143 17c0 1.476-.524 2.667-1.381 3.476-.857.81-2.048 1.238-3.476 1.238H7.57c-1.428 0-2.619-.428-3.476-1.238-.857-.857-1.285-2.047-1.285-3.524V7.19c0-1.428.428-2.619 1.285-3.476.81-.81 2.048-1.238 3.476-1.238h9.81c1.429 0 2.619.429 3.476 1.286.81.857 1.286 2.048 1.286 3.428V17Z" fill="#F2F2F7"/></svg>
